src/assets/ai-icon-grey.svg

<svg width="29" height="28" viewBox="0 0 29 28" fill="none" xmlns="http://www.w3.org/2000/svg">
<path fill-rule="evenodd" clip-rule="evenodd" d="M23.7643 15.5988C23.7643 15.3737 23.6742 15.1579 23.5137 14.9988C23.3533 14.8396 23.1357 14.7502 22.9088 14.7502H5.79944C5.57255 14.7502 5.35496 14.8396 5.19453 14.9988C5.0341 15.1579 4.94397 15.3737 4.94397 15.5988V24.9326C4.94374 25.267 5.00997 25.5981 5.13887 25.9071C5.26776 26.216 5.45679 26.4967 5.69515 26.7332C5.93351 26.9696 6.21652 27.1571 6.52799 27.2849C6.83946 27.4128 7.17329 27.4785 7.51038 27.4783H21.1979C21.8788 27.4783 22.5324 27.2093 23.0115 26.7315C23.4931 26.2555 23.7643 25.6072 23.7643 24.9326V15.5988ZM23.7643 2.87074C23.7643 2.19531 23.494 1.54787 23.0123 1.071C22.7742 0.834449 22.4913 0.646811 22.18 0.518826C21.8686 0.390841 21.5349 0.325021 21.1979 0.325134H7.51038C6.82942 0.325134 6.1767 0.593271 5.69593 1.071C5.45745 1.30721 5.26827 1.58776 5.13924 1.89659C5.01021 2.20541 4.94386 2.53645 4.94397 2.87074V10.5076C4.94397 11.183 5.2143 11.8304 5.69593 12.3073C5.93407 12.5438 6.21691 12.7315 6.52826 12.8595C6.83961 12.9875 7.17335 13.0533 7.51038 13.0532H21.1979C21.8788 13.0532 22.5316 12.785 23.0123 12.3073C23.2508 12.0711 23.44 11.7905 23.569 11.4817C23.698 11.1729 23.7644 10.8418 23.7643 10.5076V2.87074ZM10.9323 3.71927C10.2631 3.73641 9.6271 4.01213 9.15991 4.48766C8.69272 4.96318 8.43126 5.6009 8.43126 6.26488C8.43126 6.92886 8.69272 7.56658 9.15991 8.0421C9.6271 8.51763 10.2631 8.79334 10.9323 8.81048C11.6014 8.79334 12.2374 8.51763 12.7046 8.0421C13.1718 7.56658 13.4332 6.92886 13.4332 6.26488C13.4332 5.6009 13.1718 4.96318 12.7046 4.48766C12.2374 4.01213 11.6014 3.73641 10.9323 3.71927ZM17.776 3.71927C17.1068 3.73641 16.4709 4.01213 16.0037 4.48766C15.5365 4.96318 15.275 5.6009 15.275 6.26488C15.275 6.92886 15.5365 7.56658 16.0037 8.0421C16.4709 8.51763 17.1068 8.79334 17.776 8.81048C18.4452 8.79334 19.0811 8.51763 19.5483 8.0421C20.0155 7.56658 20.277 6.92886 20.277 6.26488C20.277 5.6009 20.0155 4.96318 19.5483 4.48766C19.0811 4.01213 18.4452 3.73641 17.776 3.71927ZM25.3289 14.7502H25.4752C26.1562 14.7502 26.8089 15.0184 27.2897 15.4961C27.7713 15.973 28.0416 16.6204 28.0416 17.2958V22.387C28.0416 23.0625 27.7713 23.7099 27.2897 24.1868C27.0515 24.4233 26.7687 24.611 26.4573 24.739C26.146 24.8669 25.8122 24.9328 25.4752 24.9326V15.5988C25.4752 15.3009 25.4239 15.0158 25.3289 14.7502ZM3.37932 14.7502H3.23303C2.55208 14.7502 1.89936 15.0184 1.41858 15.4961C1.1801 15.7323 0.990931 16.0129 0.8619 16.3217C0.732869 16.6305 0.666512 16.9615 0.666626 17.2958V22.387C0.666626 23.0625 0.936954 23.7099 1.41858 24.1868C1.65673 24.4233 1.93957 24.611 2.25092 24.739C2.56227 24.8669 2.89601 24.9328 3.23303 24.9326V15.5988C3.23303 15.3009 3.28436 15.0158 3.37932 14.7502Z" fill="#CACACA"/>
</svg>

<svg width="29" height="28" fill="none" xmlns="http://www.w3.org/2000/svg"><path fill-rule="evenodd" clip-rule="evenodd" d="M23.764 15.599a.846.846 0 00-.25-.6.859.859 0 00-.605-.249H5.799a.859.859 0 00-.604.249.845.845 0 00-.251.6v9.334a2.526 2.526 0 00.751 1.8 2.566 2.566 0 001.815.745h13.688a2.57 2.57 0 001.814-.747 2.531 2.531 0 00.752-1.798v-9.334zm0-12.728a2.53 2.53 0 00-.752-1.8 2.564 2.564 0 00-1.814-.746H7.51a2.574 2.574 0 00-2.37 1.572c-.13.308-.196.64-.196.974v7.637c0 .675.27 1.322.752 1.8a2.565 2.565 0 001.814.745h13.688a2.574 2.574 0 002.371-1.571c.129-.31.195-.64.195-.974V2.87zm-12.832.848a2.577 2.577 0 00-1.772.769 2.536 2.536 0 000 3.554 2.577 2.577 0 001.772.768 2.577 2.577 0 001.773-.768 2.536 2.536 0 000-3.554 2.577 2.577 0 00-1.773-.769zm6.844 0a2.577 2.577 0 00-1.772.769 2.536 2.536 0 000 3.554 2.577 2.577 0 001.772.768 2.577 2.577 0 001.772-.768 2.536 2.536 0 000-3.554 2.577 2.577 0 00-1.772-.769zm7.553 11.031h.146c.681 0 1.334.268 1.815.746.481.477.752 1.124.752 1.8v5.091c0 .675-.27 1.323-.752 1.8a2.566 2.566 0 01-1.815.746v-9.334c0-.298-.051-.583-.146-.849zm-21.95 0h-.146a2.574 2.574 0 00-2.371 1.572 2.51 2.51 0 00-.195.974v5.091c0 .675.27 1.323.752 1.8a2.566 2.566 0 001.814.746v-9.334c0-.298.051-.583.146-.849z" fill="#CACACA"/></svg>
